X: 25314
T: Manchester, The
R: reel
M: 4/4
K: Emixolydian
Beed cABG|AF~F2 DEFA|Beed cdBG|1 AFdF E2FA:|2 AFdF E3f||
eB~B2 egbg|fd~d2 fggf|eB~B2 egbg|fedf e3f|
eB~B2 egbg|fddc dfaf|eBBA GBdc|BGAF DEFA||

